!!!OTL: Mayibuye
!!!XEN: Restore Africa to its Owners
!!!CNT: African -- sub-Saharan -- Xhosa
**kern
*k[b-]
*M4/4
*MM120
=1
8.a
16cc
4ff
2r
=2
8.b-
16dd
8ff
4ee
[8cc
4cc]
=3
8.a
16cc
4ff
2r
=4
8.b-
16dd
8ff
4ee
[8cc
4cc]
=5
8.a
16cc
4ff
2r
=6
8.b-
16dd
8ff
4ee
[8cc
4cc]
=7
8.a
16cc
4ff
2r
=8
8.b-
16dd
8ff
4ee
[8cc
4cc]
=9
4r
8a
[8f
2f]
=10
8d
8f
8b-
[8g
2g]
=11
4r
8a
[8f
=12
8d]
8f
8b-
[8g
2g]
=13
4r
8a
[8f
4.f]
8f
=14
8d
8f
8b-
[8g
2g]
=15
4r
8a
[8f
2f]
=16
8d
8f
8b-
[8g
2g]
=17
8r
8ff
8aa
[8ff
4.ff]
8cc
=18
8ee-
8cc
8b-
8cc
2cc
=19
8r
8ff
8aa
[8ff
4.ff]
8cc
=20
8ee-
8cc
8b-
8cc
2cc
=21
4r
8aa
[8ff
4ff]
=22
8ee-
8cc
8b-
8cc
2cc
=23
4r
8aa
[8ff
2ff]
=24
8ee-
8cc
8b-
8cc
2cc
=25
4r
8b-
8a
8b-
8a
4f
=26
8cc
8cc
8b-
8cc
2cc
!! page 92
=27
4r
8b-
8a
8b-
8a
4f
=28
8cc
8cc
8b-
cc
2cc
=29
4r
8b-
8a
8b-
8a
4f
=30
8cc
4b-
8cc
2cc
=31
4r
8b-
8a
8b-
8a
4f
=32
8cc
4b-
8cc
2cc
=33
8r
4gg
8gg
8gg
4ff
8ee-
=34
8cc
16b-
16a-
8a-
16f
16g
2f
=35
8cc
8an
8cc
8an
8f
16a
[16cc
16cc]
16a
8f
=36
8r
[8cc
16cc]
16b-
[8cc
8cc]
8r
4r
=37
8cc
8gg
8gg
[8ff
4ff]
8cc
8a
=38
8b-
8dd
8cc
[8cc
4cc]
4r
=39
8cc
8gg
8gg
[8ff
4ff]
8cc
8a
=40
8b-
8dd
8cc
4cc
8cc
8g
8b-
=41
8a
[8cc
16cc]
16a
8f
4c
4r
=42
8d
[8b-
16b-]
16a
8g
4cc
8r
8g#
=43
8a
8cc
8gg
[8ff
2ff]
=44
8b-
8g
8dd
8cc
2cc
=45
8a
8cc
8gg
[8ff
2ff]
=46
8b-
8g
8dd
8cc
2cc
=47
8f
8ee-
8ee-
8dd
8dd
8ff
8ff
8ee-
=48
8ee-
8cc
8cc
8b-
8b-
8g
4cc
=49
8a
8cc
8ff
8cc
8a
8f
8a
8cc
=50
8b-
8g
8dd
8cc
8cc
8dd#
4ee
=51
8ff
8cc
4r
8a
8c
8a
8f
=52
8b-
8dd
8dd
8cc
4cc
4r
!! Repeat from the beginning.
=53
8.a
16cc
4ff
2r
=54
8.b-
16dd
8ff
4ee
[8cc
4cc]
=55
8.a
16cc
4ff
2r
=56
8.b-
16dd
8ff
4ee
[8cc
4cc]
=57
8.a
16cc
4ff
2r
=58
8.b-
16dd
8ff
4ee
[8cc
4cc]
=59
8.a
16cc
4ff
2r
=60
8.b-
16dd
8ff
4ee
[8cc
4cc]
=61
4r
8a
[8f
2f]
=62
8d
8f
8b-
[8g
2g]
=63
4r
8a
[8f
=64
8d]
8f
8b-
[8g
2g]
=65
4r
8a
[8f
4.f]
8f
=66
8d
8f
8b-
[8g
2g]
=67
4r
8a
[8f
2f]
=68
8d
8f
8b-
[8g
2g]
=69
8r
8ff
8aa
[8ff
4.ff]
8cc
=70
8ee-
8cc
8b-
8cc
2cc
=71
8r
8ff
8aa
[8ff
4.ff]
8cc
=72
8ee-
8cc
8b-
8cc
2cc
=73
4r
8aa
[8ff
4ff]
=74
8ee-
8cc
8b-
8cc
2cc
=75
4r
8aa
[8ff
2ff]
=76
8ee-
8cc
8b-
8cc
2cc
=77
4r
8b-
8a
8b-
8a
4f
=78
8cc
8cc
8b-
8cc
2cc
!! page 92
=79
4r
8b-
8a
8b-
8a
4f
=80
8cc
8cc
8b-
cc
2cc
=81
4r
8b-
8a
8b-
8a
4f
=82
8cc
4b-
8cc
2cc
=83
4r
8b-
8a
8b-
8a
4f
=84
8cc
4b-
8cc
2cc
=85
8r
4gg
8gg
8gg
4ff
8ee-
=86
8cc
16b-
16a-
8a-
16f
16g
2f
=87
8cc
8an
8cc
8an
8f
16a
[16cc
16cc]
16a
8f
=88
8r
[8cc
16cc]
16b-
[8cc
8cc]
8r
4r
=89
8cc
8gg
8gg
[8ff
4ff]
8cc
8a
=90
8b-
8dd
8cc
[8cc
4cc]
4r
=91
8cc
8gg
8gg
[8ff
4ff]
8cc
8a
=92
8b-
8dd
8cc
4cc
8cc
8g
8b-
=93
8a
[8cc
16cc]
16a
8f
4c
4r
=94
8d
[8b-
16b-]
16a
8g
4cc
8r
8g#
=95
8a
8cc
8gg
[8ff
2ff]
=96
8b-
8g
8dd
8cc
2cc
=97
8a
8cc
8gg
[8ff
2ff]
=98
8b-
8g
8dd
8cc
2cc
=99
8f
8ee-
8ee-
8dd
8dd
8ff
8ff
8ee-
=100
8ee-
8cc
8cc
8b-
8b-
8g
4cc
=101
8a
8cc
8ff
8cc
8a
8f
8a
8cc
=102
8b-
8g
8dd
8cc
8cc
8dd#
4ee
=103
8ff
8cc
4r
8a
8c
8a
8f
=104
8b-
8dd
8dd
8cc
4cc
4r
==
*-
!!!OPR: Miriam Makeba, "The World of African Song"
!!!PPP: Chicago
!!!PPR: Quadrangle Press (12 East Delaware Place)
!!!PDT: 1971///
!!!PPG: 92-93
!!!ENC: David Huron
!!!EMD: 1998/9/29/ Paul von Hippel updated this file in the following ways:
!!!EMD:  (1) changed the representation of slurs from curly braces to parentheses 
!!!EMD:  (2) changed freeform comments into reference records and tandem interpretations
!!!EMD:  (3) changed final barline from triple (===) to double (==)
!!!EMD:  (4) added key signature from printed source
!!!EEV: Version 2.0
